X:2 
T:Nighean donn a chuiailein riomhaich 
M:6/8 
L:1/8 
K:D 
R: Air 
D: Daimh. Mabou to Moidart. CD 
N: Air of gaelic song 
Z: Edgar Bolton. Transposed from C to D 
|: D3 D2 F | A2 B d2 A | B2 F A2 F | E2 F B2 A2 | 
   D3 D2 F | A2 B d2 A | B2 F A2 F | E D2 D3  :| 
|: d3 d2 f | e d2 d2 AG | F2 G A2 AG | =c2 B B A2 | 
A2 d f2 d | e2 f d2 A | B2 F A2 F | E D2 D3 :|
